svgs/sharp-light/files.svg

<svg xmlns="http://www.w3.org/2000/svg" viewBox="0 0 448 512"><!--! Font Awesome Pro 6.6.0 by @fontawesome - https://fontawesome.com License - https://fontawesome.com/license (Commercial License) Copyright 2024 Fonticons, Inc. --><path d="M128 384l0-352 176 0 0 96 0 16 16 0 96 0 0 240-288 0zM336 57.5L390 112l-54 0 0-54.5zM324 0L128 0 96 0l0 32 0 352 0 32 32 0 288 0 32 0 0-32 0-259L324 0zM32 112l0-16L0 96l0 16L0 496l0 16 16 0 320 0 16 0 0-32-16 0L32 480l0-368z"/></svg>

<svg xmlns="http://www.w3.org/2000/svg" viewBox="0 0 448 512"><!--! Font Awesome Pro 6.4.2 by @fontawesome - https://fontawesome.com License - https://fontawesome.com/license (Commercial License) Copyright 2023 Fonticons, Inc. --><path d="M128 384V32H304v96 16h16 96V384H128zM336 57.5L390 112H336V57.5zM324 0H128 96V32 384v32h32H416h32V384 125L324 0zM32 112V96H0v16V496v16H16 336h16V480H336 32V112z"/></svg>
